dist/icons/svgs/arrow-up-arrow-down-solid.svg

<svg xmlns="http://www.w3.org/2000/svg" width="24" height="24" fill="currentcolor" class="icon-arrow-up-arrow-down-solid" viewBox="0 0 24 24">
  <path d="M8.35938 3.64062L12.1094 7.39062C12.6172 7.85938 12.6172 8.67969 12.1094 9.14844C11.6406 9.65625 10.8203 9.65625 10.3516 9.14844L8.75 7.54688V19.5C8.75 20.2031 8.16406 20.75 7.5 20.75C6.79688 20.75 6.25 20.2031 6.25 19.5V7.54688L4.60938 9.14844C4.14062 9.65625 3.32031 9.65625 2.85156 9.14844C2.34375 8.67969 2.34375 7.85938 2.85156 7.39062L6.60156 3.64062C7.07031 3.13281 7.89062 3.13281 8.35938 3.64062ZM22.1094 16.6484L18.3594 20.3984C17.8906 20.9062 17.0703 20.9062 16.6016 20.3984L12.8516 16.6484C12.3438 16.1797 12.3438 15.3594 12.8516 14.8906C13.3203 14.3828 14.1406 14.3828 14.6094 14.8906L16.25 16.4922V4.5C16.25 3.83594 16.7969 3.25 17.5 3.25C18.1641 3.25 18.75 3.83594 18.75 4.5V16.4922L20.3516 14.8906C20.8203 14.3828 21.6406 14.3828 22.1094 14.8906C22.6172 15.3594 22.6172 16.1797 22.1094 16.6484Z"/>
</svg>

<svg xmlns="http://www.w3.org/2000/svg" width="24" height="24" fill="currentColor" class="icon-arrow-up-arrow-down-solid" viewBox="0 0 24 24">
  <path d="m8.36 3.64 3.75 3.75c.507.47.507 1.29 0 1.758a1.205 1.205 0 0 1-1.758 0L8.75 7.547V19.5c0 .703-.586 1.25-1.25 1.25-.703 0-1.25-.547-1.25-1.25V7.547L4.61 9.148a1.205 1.205 0 0 1-1.758 0 1.205 1.205 0 0 1 0-1.757l3.75-3.75a1.205 1.205 0 0 1 1.757 0m13.75 13.008-3.75 3.75a1.205 1.205 0 0 1-1.758 0l-3.75-3.75a1.205 1.205 0 0 1 0-1.757 1.205 1.205 0 0 1 1.757 0l1.641 1.601V4.5c0-.664.547-1.25 1.25-1.25.664 0 1.25.586 1.25 1.25v11.992l1.602-1.601a1.205 1.205 0 0 1 1.757 0 1.203 1.203 0 0 1 0 1.757"/>
</svg>
